X: 16
T: Good Natured Man, The
C: James Hill
Z: Jeff Rowan
S: https://thesession.org/tunes/312#setting50346
R: hornpipe
M: 4/4
L: 1/8
K: Gmaj
|:(3def|g2 bg d2 gd|BcdB G2 AB|c2 ec [Ae]2 cA |FGAB cdef|
g2 bg d2 gd|BcdB G2 AB|cedc BAGF|A2 GF [GB]2 :|
|: AB|dBdB gfgd|ecec agae|fdfd gfgb|(3aba (3gfe d2 ef|
g2 bg d2 gd|BcdB G2 AB|cedc BAGF|A2 GF [GB]2 :|

